X: 680
T: Eviç Peşrev
C: Tanburî Küçük Osman Bey
O: Turkey
F: http://compmusic.upf.edu/node/140
N: evic--pesrev--devrikebir----tanburi_kucuk_osman_bey
N: makam= evic
N: form= pesrev
N: usul= devrikebir = 28/4
M: 28/4
L: 1/16
K: C _1/4B ^f ^c 
Q: 1/4=84
%%MIDI tuningsystem comma53
^3/4e4 f8 e4  | gfga g2f2 a8  | a4 f2a2 g4 f4  | \
w:  1. HANE  |   |   | 
g3f ^3/4e2f2 e4 f4  | 
w:   | 
z4 a2b2 a4 g2f2  | z2a2 g2^3/4f2 g3/2a/gf e4  | \
w:   |   | 
^3/4f3e d2e2 d4 e4  | 
w:   | 
z4 d2e2 d4 e4  | a3g f2^3/4e2 f4 z4  | \
w:   |   | 
^g4 a8 a4  | a2b2 a2^g2 a3g f4  | 
w:   |   | 
z4 =c'2b2 a4 g2f2  | g3^3/4f e2f2 z4 e2f2  | \
w:   |   | 
g2a2 g2^3/4f2 f3e d4  | =c4 d8 c4  | 
w:   |  TESLİM  | 
=f2e4d2 d2d/e/=c d4  | z4 =c2d2 d2e2 d2c2  | \
w:   |   | 
d2=c4B2 B2^A2 B4  | 
w:   | 
z4 A2B2 d4 =c2B2  | A6G2 A2G2 F2^3/4E2  | \
w:   |   | 
F6^G2 A8  | ^G4 A8 =B2c2  | d6e2 f6e2  | 
w:  2. HANEYE  |  2. HANE  |   | 
d12 e2^3/4f2  | a2g4f2 f2^3/4e2 f4  | \
w:   |   | 
z4 a2b2 a4 g4  | f4 e2f2 g2a2 g2f2  | 
w:   |   | 
f2g2 f2e2 fgfe d4  | z4 f2g2 f4 e4  | \
w:   |   | 
e3d c2e2 d4 z4  | z4 e2^3/4f2 f3e d4  | 
w:   |   | 
z4 ^3/4f2g2 g3f e4  | z4 g3a a3g ^3/4f2b2  | \
w:   |   | 
b3a a3g g3f f3e  | 
w:   | 
^1/4f2e2 d2c2 d4 g^3/4fed  | =c4 d8 c4  | \
w:   |  TESLİM  | 
=f2e4d2 d2d/e/=c d4  | z4 =c2d2 d2e2 d2c2  | 
w:   |   | 
d2=c4B2 B2^A2 B4  | z4 A2B2 d4 =c2B2  | \
w:   |   | 
A6G2 A2G2 F2^3/4E2  | F6g2 a8  | 
w:   |  3. HANEYE  | 
g4 a8 a2g2  | d'4 =c'2b2 a8  | e'2d'2 =c'2b2 a4 f2g2  | \
w:  3. HANE  |   |   | 
b2a2 g2^3/4f2 f3e d4  | 
w:   | 
f4 g8 f4  | g2a2 g2f2 f6e2  | e2g2 ^3/4f2e2 e8  | \
w:   |   |   | 
d2c=B c2d2 c3B A4  | 
w:   | 
.c2.=B2 .A2.^G2 A8  | d2e2 d2c2 d4 e2f2  | \
w:   |   | 
gfga gf^3/4e2 f8  | z4 a2b2 a4 g2f2  | 
w:   |   | 
a6g^3/4f f2g4f2  | e2^1/4f2 e2d2 d4 z4  | \
w:   |   | 
=c4 d8 c4  | =f2e4d2 d2d/e/=c d4  | 
w:  TESLİM  |   | 
z4 =c2d2 d2e2 d2c2  | d2=c4B2 B2^A2 B4  | \
w:   |   | 
z4 A2B2 d4 =c2B2  | A6G2 A2G2 F2^3/4E2  | 
w:   |   | 
F6G2 A8  | G4 A8 GAB=c  | d3=c B2c2 ABAG FGAB  | 
w:  4. HANEYE  |  4. HANE  |   | 
A4 =f2e2 d4 =c2_2/4B2  | _2/4B2=c2 B2A2 A4 z4  | \
w:   |   | 
z4 d4 d3/2e/dc =B2c2  | d6c2 =B2c2 B2A2  | 
w:   |   | 
=B2c2 d2e2 c4 d4  | z4 g2^3/4f2 e2=f2 e2d2  | \
w:   |   | 
e3/2=f/e{f}d {e}c2d2 c4 d4  | 
w:   | 
z4 e2^3/4f2 g2a2 g2f2  | a2g4f2 fgf^3/4e f4  | \
w:   |   | 
z4 e2f2 g4 a4  | a2b2 a2g2 g2a2 g2f2  | 
w:   |   | 
f2g2 f2e2 f3e d4  | =c4 d8 c4  | =f2e4d2 d2d/e/=c d4  | \
w:   |  TESLİM  |   | 
z4 =c2d2 d2e2 d2c2  | 
w:   | 
d2=c4B2 B2^A2 B4  | z4 A2B2 d4 =c2B2  | \
w:   |   | 
A6G2 A2G2 F2^3/4E2  | F4 F4 F4 z4  | 
w:   |  KARAR  | 
|


